X:6
T:Hora moldoveneasca
R:hora
D:Marcel Budala
Z:id:hn-hora-6
M:C|
L:1/8
K:Em
cBAF GGGF | AF^DF EGB2 | cBAF GGGF | AF^DF E4 :|
|: B2ee e^def | gfe^c d3c | e^cd2 zB=cA | B8 |
B2ee e^def | gfe^c d3c | eedB ^cd^Ac | B8 :|
|: Bcde dccB | BAAG FGAB | c2AG FDEF | GFGA BcdG |
Bcde dccB | BAAG FGAB | c2BA GEF^D | E8 :|
|: cBAF GGGF | AF^DF EGB2 | cBAF GGGF | AF^DF E4 :|

